X:1
T:Mount Zion (Mason), LM
T:Lowell Mason, 1844
T:Mount Zion (Mason), LM
T:Public Domain
C:Lowell Mason, 1844
Z:Public Domain
%%score ( 1 2 ) ( 3 4 )
L:1/8
M:3/4
K:C
V:1 treble 
V:2 treble 
V:3 bass 
V:4 bass 
V:1
 [EG]2 ([EG]2 [Gc]2) | (c2 B2) (cG) | ([FA][Ad]) [Gc]2 [GB]2 | [Gc]4 [^FA]2 | (G2 D2) [Ec]2 | %5
 d2 ^F2 [DG]2 | EA [DG]2 (DE) | [B,G]6 | [CE]2 [G,C]2 [EG]2 | ([EG]2 [CE]2) [G,C]2 | (C2 D2) E2 | %11
 E2 D2 ([CE][DF]) | (G2 c2) [Ge]2 | (e2 d2) (cG) | ([FA][Af]) [Ge]2 [Fd]2 | [Ec]6 |] %16
V:2
 x6 | G4 G2 | x6 | x6 | B4 x2 | D4 x2 | E2 x ^F2 x | x6 | x6 | x6 | F4 E2 | E2 D2 x2 | E4 x2 | %13
 G4 G2 | x6 | x6 |] %16
V:3
 C,2 ([C,E,]2 [G,,C,]2) | (E,2 z) F, [C,E,]2 | (C,F,) [E,G,]2 [G,,D,]2 | [C,E,]4 D,2 | %4
 [D,G,]4 [G,,E,]2 | [G,,B,,]2 [A,,C,]2 [G,,B,,]2 | (A,,C,) [B,,D,]2 [A,,D,]2 | G,,6 | %8
 [G,,C,]2 [E,,C,]2 C,2 | (C,2 G,,2) [G,,E,]2 | [F,,D,]4 [G,,C,]2 | (G,3 F,) (E,D,) | [G,,C,]4 C,2 | %13
 C,2 z F, [C,E,]2 | (F,2 G,2) [G,,B,,]2 | C,6 |] %16
V:4
 C,2 x4 | G,3 D,2 x | F,2 x4 | x4 D,2 | x6 | x6 | C,2 x4 | G,,6 | x4 C,2 | C,4 x2 | x6 | %11
 G,,4 G,,2 | x4 C,2 | G,3 B,,2 x | C,4 x2 | C,6 |] %16

